FINK
CUT[ALLERSCHOENSTER ENGEL]
REG[Europa, Mitteleuropa, Deutschland]
KEY[F0142  16  C 2/4]
MEL[  1__-7__  1_-5_-3_-1_  1__-7__  1__.
    -5_  -6_-6_-6_-6_  -5_-5_1_3_  4__3_3_  2__0_
    -4_  -5__-5_-7b_  -6_1_-4__
    -6_-6_-6_1_  -7_2_-5_
    -5_  1__3_.2  1_-7_1_-3_  -4__-5__  -1__0__ //] >>
FCT[Liebes - Lied]
